X: 361
T: Huangyandong da shengli
L: 1/16
M: 2/4
K: A
B2 F A B2 F A [I:setbarnb 1]| 
B2 F A B2 A F | 
E F A2 A2 F E | 
F E D CB,4 | 
B2> A2 F2 F E | 
F2 G2 F2 z2 | 
E F A2 A F E2 | 
F E D CB,4 |]

@@@ Tune index: 9235
